images/svg/features/antenna.svg

<svg width="64" height="64" viewBox="0 0 64 64" fill="none" xmlns="http://www.w3.org/2000/svg">
<path d="M61.5462 44.1952L44.6598 27.1851L46.5339 17.9541C47.0175 18.1429 47.5316 18.2416 48.0507 18.2453H48.0635C50.448 18.2735 52.4039 16.3633 52.4322 13.9788C52.4604 11.5943 50.5502 9.6384 48.1656 9.61013C45.7811 9.582 43.8252 11.4921 43.797 13.8767C43.791 14.3869 43.8754 14.8941 44.0464 15.3749L34.1264 16.5856L17.9451 0.32C17.7466 0.117467 17.4756 0.00226667 17.192 0C16.912 0.00146667 16.6439 0.112933 16.4454 0.3104L13.4203 3.3184C13.0039 3.73493 13.0039 4.41013 13.4203 4.82667L15.048 6.47787C8.74189 18.0737 10.7902 32.4335 20.087 41.8037C20.1723 41.8853 20.2712 41.9513 20.3792 41.9989C20.312 42.3599 20.277 42.7261 20.2747 43.0933V55.4667H7.47469C4.53069 55.4701 2.14482 57.856 2.14136 60.8V62.9333C2.14136 63.5224 2.61896 64 3.20802 64H52.2747C52.8638 64 53.3414 63.5224 53.3414 62.9333V60.8C53.3379 57.856 50.952 55.4701 48.008 55.4667H35.208V49.9829C37.2132 50.4035 39.2563 50.6179 41.3051 50.6229C46.2214 50.6176 51.0594 49.392 55.3851 47.056L57.0214 48.7019C57.2199 48.9044 57.4908 49.0196 57.7744 49.0219C58.0544 49.0204 58.3226 48.9089 58.5211 48.7115L61.5462 45.7035C61.9626 45.2869 61.9626 44.6117 61.5462 44.1952ZM46.5595 12.4661C47.3948 11.6352 48.7456 11.6389 49.5764 12.4743C50.4074 13.3096 50.4036 14.6604 49.5683 15.4912C49.1684 15.8889 48.6274 16.1121 48.0634 16.112H48.057C46.8788 16.1059 45.9286 15.1459 45.9347 13.9676C45.9376 13.4036 46.1638 12.8639 46.5636 12.4661H46.5595ZM44.0486 19.4752L42.8518 25.3664L40.5008 23.0016L44.0486 19.4752ZM42.8368 17.6715L38.9968 21.4891L36.0262 18.5024L42.8368 17.6715ZM48.008 57.6C49.7754 57.6 51.208 59.0327 51.208 60.8V61.8667H4.27469V60.8C4.27469 59.0327 5.70736 57.6 7.47469 57.6H48.008ZM33.0747 53.3333V55.4667H22.408V53.3333H33.0747ZM22.408 51.2V43.0933C22.408 40.5056 24.8006 38.4 27.7414 38.4C30.6822 38.4 33.0747 40.5056 33.0747 43.0933V51.2H22.408ZM35.208 47.808V43.0933C35.208 39.3291 31.8587 36.2667 27.7414 36.2667C25.0792 36.2259 22.5899 37.5809 21.1792 39.8389C13.0638 31.2913 11.2363 18.5485 16.622 8.06467L53.8256 45.4816C48.0808 48.404 41.4954 49.2268 35.208 47.808ZM57.7862 46.4405L56.2832 44.9291L17.1814 5.59147L15.672 4.07893L17.1814 2.57493L33.0512 18.5344C33.0587 18.5344 33.063 18.5483 33.0704 18.5536L59.2998 44.9365L57.7862 46.4405Z" fill="#2E2F42"/>
<path d="M27.751 40.5333H27.7414C25.9741 40.5307 24.5393 41.9612 24.5366 43.7285C24.534 45.4959 25.9645 46.9307 27.7318 46.9333H27.7414C29.5088 46.936 30.9436 45.5055 30.9462 43.7381C30.9489 41.9708 29.5184 40.536 27.751 40.5333ZM28.4977 44.4896C28.2969 44.6893 28.0248 44.8011 27.7414 44.8C27.1524 44.7969 26.6773 44.3169 26.6804 43.7279C26.6818 43.4459 26.7949 43.176 26.9948 42.9771C27.1933 42.7796 27.4614 42.6681 27.7414 42.6667C28.3305 42.6697 28.8056 43.1497 28.8025 43.7388C28.801 44.0208 28.688 44.2907 28.4881 44.4896H28.4977Z" fill="#4D5AE5"/>
</svg>

<svg width="64" height="64" fill="none" xmlns="http://www.w3.org/2000/svg"><path d="M61.546 44.195 44.66 27.185l1.874-9.23c.483.188.998.287 1.517.29h.012a4.318 4.318 0 1 0-4.017-2.87l-9.92 1.21L17.946.32a1.066 1.066 0 0 0-.754-.32c-.28.001-.548.113-.747.31L13.42 3.318a1.067 1.067 0 0 0 0 1.509l1.628 1.65a29.885 29.885 0 0 0 5.039 35.327c.085.081.184.147.292.195a6.192 6.192 0 0 0-.104 1.094v12.374h-12.8A5.34 5.34 0 0 0 2.14 60.8v2.133c0 .59.478 1.067 1.067 1.067h49.067c.589 0 1.066-.478 1.066-1.067V60.8a5.34 5.34 0 0 0-5.333-5.333h-12.8v-5.484c2.005.42 4.048.635 6.097.64a29.699 29.699 0 0 0 14.08-3.567l1.636 1.646c.199.202.47.318.753.32.28-.002.549-.113.747-.31l3.025-3.009a1.067 1.067 0 0 0 0-1.508ZM46.56 12.466a2.133 2.133 0 1 1 1.503 3.646h-.006a2.133 2.133 0 0 1-1.493-3.646h-.005Zm-2.511 7.01-1.197 5.89-2.351-2.364 3.548-3.527Zm-1.212-1.804-3.84 3.817-2.97-2.987 6.81-.83ZM48.008 57.6a3.2 3.2 0 0 1 3.2 3.2v1.067H4.275V60.8a3.2 3.2 0 0 1 3.2-3.2h40.533Zm-14.933-4.267v2.134H22.408v-2.134h10.667ZM22.408 51.2v-8.107c0-2.587 2.393-4.693 5.333-4.693 2.941 0 5.334 2.106 5.334 4.693V51.2H22.408Zm12.8-3.392v-4.715c0-3.764-3.35-6.826-7.467-6.826a7.6 7.6 0 0 0-6.562 3.572 27.739 27.739 0 0 1-4.557-31.774l37.204 37.417a27.642 27.642 0 0 1-18.618 2.326Zm22.578-1.367-1.503-1.512L17.181 5.591 15.672 4.08l1.51-1.504 15.87 15.96c.007 0 .011.013.018.019L59.3 44.937l-1.514 1.504Z" fill="#2E2F42"/><path d="M27.751 40.533h-.01a3.2 3.2 0 0 0-.01 6.4h.01a3.2 3.2 0 1 0 .01-6.4Zm.747 3.957a1.067 1.067 0 1 1-.757-1.823 1.067 1.067 0 0 1 .747 1.823h.01Z" fill="#4D5AE5"/></svg>
